!!!COM: Palestrina, Giovanni Perluigi da
!!!OPR: Missa O admirabile commercium
!!!OMD: Credo
!!!OTL: Et iterum
**kern	**kern	**kern	**kern	**kern
*Ibass	*Itenor	*Itenor	*Icalto	*Icant
!Bassus	!Tenor 2	!Tenor 1	!Altus	!Cantus
*clefF4	*clefGv2	*clefGv2	*clefG2	*clefG2
*k[]	*k[]	*k[]	*k[]	*k[]
*G:mix	*G:mix	*G:mix	*G:mix	*G:mix
*M4/2	*M4/2	*M4/2	*M4/2	*M4/2
=107	=107	=107	=107	=107
0r	1g	1c	1cc	1ee
.	[1a	[1f	[1cc	[1ff
=108	=108	=108	=108	=108
0r	2a]	2f]	2cc]	2ff]
.	2g	2c	2cc	2ee
.	2g	2c	2cc	2ee
.	2g	2c	2cc	2ee
=109	=109	=109	=109	=109
0r	2f	1d	2a	1dd
.	2f	.	2a	.
.	2e	1A	4a	1cc
.	.	.	4g	.
.	2a	.	4f	.
.	.	.	4e	.
=110	=110	=110	=110	=110
0r	4g	2B	2d	2dd
.	4f	.	.	.
.	4e	2c	2c	2g
.	4d	.	.	.
.	2c	2.A	2e	2.cc
.	2c	.	2f#	.
.	.	4A	.	4cc
=111	=111	=111	=111	=111
2r	2d	2G	2g	1b
2G	2g	2d	2b	.
2G	2g	2d	2b	1r
[2c	[2g	[2e	[2cc	.
=112	=112	=112	=112	=112
2c]	2g]	2e]	2cc]	0r
2G	2g	2d	1b	.
1A	1e	1c	.	.
.	.	.	[2a	.
=113	=113	=113	=113	=113
2E	2e	2B	2a]	1r
2E	2e	1c	2g	.
2F	2d	.	2a	2r
2G	2d	4B	[2b	2g
.	.	4A	.	.
=114	=114	=114	=114	=114
1E	1g	1G	4b]	2b
.	.	.	4a	.
.	.	.	1g	2cc
1D	2r	2A	.	2.dd
.	[2d	2A	2f#	.
.	.	.	.	4cc
=115	=115	=115	=115	=115
2r	4d]	2G	1g	2b
.	4c	.	.	.
1G	4B	1g	.	1dd
.	4A	.	.	.
.	2B	.	1r	.
2G	2B	2g	.	2dd
=116	=116	=116	=116	=116
1C	1c	1g	1r	1ee
1G	1B	2g	2r	2dd
.	.	2g	2b	2gg
=117	=117	=117	=117	=117
0r	0r	2c	2cc	2gg
.	.	2d	2a	2ff
.	.	2e	1g	1ee
.	.	[2c	.	.
=118	=118	=118	=118	=118
1G	2r	2c]	1g	2dd
.	2g	2B	.	2dd
2C	2g	2c	2r	2ee
2D	2f	2A	2d	[2dd
=119	=119	=119	=119	=119
2.E	1e	0G	2g	4dd]
.	.	.	.	4cc
.	.	.	2g	1cc
4F	.	.	.	.
1G	1d	.	1g	.
.	.	.	.	2b
=120	=120	=120	=120	=120
2C	2r	2G	1e	0cc
1C	1e	1c	.	.
.	.	.	1r	.
2C	2e	2c	.	.
=121	=121	=121	=121	=121
2G	2d	2B	1r	0r
2E	2e	2c	.	.
2D	2f	2d	2r	.
[2F	[2f	[2c	[2a	.
=122	=122	=122	=122	=122
2F]	2f]	2c]	2a]	0r
2F	2f	2c	2a	.
2c	2e	2e	2g	.
2A	2c	2f#	2a	.
=123	=123	=123	=123	=123
0G	2d	1g	2b	2r
.	1g	.	1b	1dd
.	.	1r	.	.
.	2d	.	2b	2dd
=124	=124	=124	=124	=124
0r	2f	0r	2a	2cc
.	2d	.	2b	2dd
.	1c	.	1cc	1ee
=125	=125	=125	=125	=125
2r	2g	2r	1b	0dd
1G	1d	1B	.	.
.	.	.	1r	.
2F#	2d	2A	.	.
=126	=126	=126	=126	=126
2G	2d	2B	0r	0r
2E	2G	2c	.	.
2F	2A	2.d	.	.
2G	2B	.	.	.
.	.	4e	.	.
=127	=127	=127	=127	=127
1A	1c	2f	0r	0r
.	.	1e	.	.
2G	2B	.	.	.
2F	2A	[2d	.	.
=128	=128	=128	=128	=128
1E	1G	2d]	2r	1r
.	.	2c#	1g	.
1D	1A	2d	.	2r
.	.	2d	2f#	[2dd
=129	=129	=129	=129	=129
0r	2r	1e	1g	2dd]
.	1g	.	.	2cc#
.	.	1d	1a	[1dd
.	2f#	.	.	.
=130	=130	=130	=130	=130
0r	1g	1G	2.b	2dd]
.	.	.	.	2b
.	.	.	4a	.
.	2e	1r	2g	2cc
.	2f	.	2a	[2dd
=131	=131	=131	=131	=131
0r	2g	0r	2b	2dd]
.	2a	.	1a	2cc
.	1e	.	.	1b
.	.	.	2g#	.
=132	=132	=132	=132	=132
1.D	1.f	1.d	2a	1.dd
.	.	.	1a	.
2D	2f	2d	2a	2dd
=133	=133	=133	=133	=133
1A	1e	1c#	1a	1ee
1D	1d	1d	1a	1ff#
=134	=134	=134	=134	=134
0G	0d	0B	0g	2.gg
.	.	.	.	8ff
.	.	.	.	8ee
.	.	.	.	1dd
=135	=135	=135	=135	=135
1C	1g	1c	1.e	1ee
1G	1g	1B	.	1dd
.	.	.	2g	.
=136	=136	=136	=136	=136
2D	2f	2d	2a	2dd
2D	2f	2d	2a	2dd
2A	2e	2c#	2a	2ee
2D	2d	2d	2a	2ff#
=137	=137	=137	=137	=137
0G	0d	0B	0g	2.gg
.	.	.	.	8ff
.	.	.	.	8ee
.	.	.	.	1dd
=138	=138	=138	=138	=138
1C	0g	1c	1e	1ee
[1c	.	2r	2r	2r
.	.	[2e	[2g	[2cc
=139	=139	=139	=139	=139
2c]	0r	2e]	2g]	2cc]
2F	.	2f	2a	2cc
2A	.	2e	2a	2cc
2B	.	2d	2g	2dd
=140	=140	=140	=140	=140
0c	2r	2g	1e	0ee
.	1g	4c	.	.
.	.	4d	.	.
.	.	4e	[1cc	.
.	.	4f	.	.
.	2c	2g	.	.
=141	=141	=141	=141	=141
1A	2e	1c	2cc]	0r
.	2f#	.	4b	.
.	.	.	4a	.
[1G	2g	2d	1b	.
.	[2g	[2e	.	.
=142	=142	=142	=142	=142
1G]	2g]	2e]	1b	0r
.	2f	1d	.	.
1A	1e	.	1a	.
.	.	2c#	.	.
=143	=143	=143	=143	=143
0D	1f#	1d	1a	1r
.	2r	2r	2r	1dd
.	2f#	2d	2a	.
=144	=144	=144	=144	=144
0r	2g	2c	2cc	2ee
.	2a	2c	2cc	2ee
.	1f#	1d	1a	1dd
=145	=145	=145	=145	=145
0r	2g	2B	2g	2dd
.	2g	2c	2e	2ee
.	2.a	2.A	2.e	2.cc
.	4a	4A	4f#	4cc
=146	=146	=146	=146	=146
2r	2d	2G	2g	1b
2G	2d	2B	2g	.
2G	2f	2c	2a	1r
2F	2f	2c	2a	.
=147	=147	=147	=147	=147
2.G	2e	2c	2.g	0r
.	2d	2B	.	.
4G	.	.	4g	.
2E	2e	2c	2g	.
2F	2c	2c	2a	.
=148	=148	=148	=148	=148
2D	2c	2d	2.f	1r
2D	2B	2d	.	.
.	.	.	4f	.
[1C	2c	1G	2e	2r
.	2c	.	2g	2ee
=149	=149	=149	=149	=149
1C]	2.c	0r	2.g	2.ee
.	4c	.	4a	4ee
1r	2g	.	2b	2dd
.	2e	.	2g	2ee
=150	=150	=150	=150	=150
0r	2f	0r	2a	2cc
.	2d	.	2b	2dd
.	1c	.	1cc	1ee
=151	=151	=151	=151	=151
2r	2g	2r	0b	0dd
1G	1d	1g	.	.
2G	2d	2g	.	.
=152	=152	=152	=152	=152
2c	2e	2g	0r	0r
2A	2c	2a	.	.
2B-	2d	2f	.	.
2G	2e	2g	.	.
=153	=153	=153	=153	=153
1F	2.f	2.a	0r	0r
.	4e	4g	.	.
1F	2d	2f	.	.
.	[2c	2e	.	.
=154	=154	=154	=154	=154
1G	2c]	1d	1r	1r
.	4B	.	.	.
.	4A	.	.	.
1G	2B	2d	2r	[1dd
.	2G	[2g	[2b	.
=155	=155	=155	=155	=155
0r	1d	2g]	2b]	1dd]
.	.	4f#	4a	.
.	.	4e	4g	.
.	1r	2f#	2a	1dd
.	.	2g	2b	.
=156	=156	=156	=156	=156
2r	2r	1c	2cc	1ee
1c	1e	.	2g	.
.	.	1G	[1g	1gg
4B	4d	.	.	.
4A	4c	.	.	.
=157	=157	=157	=157	=157
2B	2d	0r	2g]	0r
2c	2e	.	2g	.
2.F	2.f	.	2.a	.
4F	4f	.	4a	.
=158	=158	=158	=158	=158
2F	2f	0r	2a	2.cc
2c	2e	.	2g	.
.	.	.	.	4b
2d	2d	.	2f	2a
2B	[2d	.	2d	2g#
=159	=159	=159	=159	=159
1A	2d]	1r	1e	1a
.	2c#	.	.	.
1G	1d	2r	2g	2b
.	.	2g	2b	2dd
=160	=160	=160	=160	=160
0r	0r	1c	1cc	1ee
.	.	2d	2a	2ff#
.	.	2d	2a	2ff#
=161	=161	=161	=161	=161
0r	0r	2e	2g	2gg
.	.	2e	2b	2gg
.	.	2.c	2.cc	2.ee
.	.	4c	4cc	4ee
=162	=162	=162	=162	=162
1G	1d	2g	1b	2dd
.	.	2g	.	2b
1C	1e	2g	1r	1cc
.	.	2G	.	.
=163	=163	=163	=163	=163
2D	2f#	1d	0r	2a
2D	2f#	.	.	2a
2E	2g	2B	.	2g
2E	2g	2G	.	2b
=164	=164	=164	=164	=164
2.C	2.e	2.g	1r	2.cc
4C	4e	4g	.	4cc
1G	1d	1g	2r	1b
.	.	.	[2g	.
=165	=165	=165	=165	=165
0r	2.c	0r	4g]	1.ee
.	.	.	4f	.
.	.	.	4e	.
.	4d	.	4f	.
.	4e	.	4g	.
.	4f#	.	4a	.
.	2g	.	2b	2dd
=166	=166	=166	=166	=166
0r	1c	0r	4a	2cc
.	.	.	4g	.
.	.	.	1g	2b
.	1d	.	.	1a
.	.	.	2f#	.
=167	=167	=167	=167	=167
1c	2r	1e	2g	2g
.	2c	.	2g	2cc
1F	1A	1f	1a	1cc
=168	=168	=168	=168	=168
2G	2G	2d	2b	2gg
2G	2g	2d	2b	2gg
2A	2c	2.a	2cc	2ee
2A	2c	.	2cc	2ee
.	.	4a	.	.
=169	=169	=169	=169	=169
2.F	2.c	2a	2.a	2.ff
.	.	2f	.	.
4F	4c	.	4a	4ff
2c	4c	2e	2g	[1gg
.	4d	.	.	.
4C	4e	[2e	[2cc	.
4D	4f	.	.	.
=170	=170	=170	=170	=170
4E	2.g	2e]	2cc]	1gg]
4F	.	.	.	.
2G	.	2d	2b	.
.	4f	.	.	.
1C	1e	2c	4a	1r
.	.	.	4g	.
.	.	2B	[2g	.
=171	=171	=171	=171	=171
0D	0d	0A	2g]	0dd
.	.	.	4f#	.
.	.	.	4e	.
.	.	.	1f#	.
=172	=172	=172	=172	=172
0G	0d	0G	0g	0b
==	==	==	==	==
*-	*-	*-	*-	*-
!!!CDT: 1525/^1526/-1594/2/2
!!!OCY: Italia
!!!AGN: Mass (Parody)
!!!AST: renaissance, vocal
!!!ASW: Motet 1569 (Palestrina)
!!!PWK: Masses, Book 8
!!!RNB: Cadence finals: C,D
!!!YOR: Le Opere Complete, v. 24, p. 52
!!!YOO: Rome, Italy: Fratelli Scalera
!!!END: 1992//
!!!EED: John Miller
!!!YEC: Copyright 2000, John Miller
!!!YEN: United States of America
!!!YEM: Rights to all derivative electronic formats reserved.
!!!YEM: Refer to licensing agreement for further details.
!!!YEM: This file must be accompanied by the licensing agreement.
!!!YEM: A copy of the licensing agreement may be found at http://www.music-cog.ohio-state.edu/HumdrumDatabases/Palestrina/license.txt
!!!EMD: converted to Humdrum by Bret Aarden
